flaticon/household/tulips.svg

<svg xmlns="http://www.w3.org/2000/svg" width="32" height="32" viewBox="0 0 24 24">
    <path d="M 21.515625 3.308594 L 19.035156 3.308594 C 18.027344 3.308594 17.191406 4.03125 17.003906 4.984375 C 15.054688 5.109375 13.367188 6.203125 12.414062 7.789062 L 12.414062 4.921875 C 13.355469 4.730469 14.070312 3.894531 14.070312 2.898438 L 14.070312 0.414062 C 14.070312 0.183594 13.882812 0 13.65625 0 L 10.34375 0 C 10.117188 0 9.929688 0.183594 9.929688 0.414062 L 9.929688 2.898438 C 9.929688 3.894531 10.644531 4.730469 11.585938 4.921875 L 11.585938 7.789062 C 10.632812 6.203125 8.945312 5.109375 6.996094 4.984375 C 6.808594 4.03125 5.972656 3.308594 4.964844 3.308594 L 2.484375 3.308594 C 2.253906 3.308594 2.070312 3.496094 2.070312 3.722656 L 2.070312 7.035156 C 2.070312 7.261719 2.253906 7.449219 2.484375 7.449219 L 4.964844 7.449219 C 5.957031 7.449219 6.789062 6.746094 6.988281 5.8125 C 9.417969 5.992188 11.363281 7.921875 11.566406 10.34375 L 8.277344 10.34375 C 8.046875 10.34375 7.863281 10.53125 7.863281 10.757812 C 7.863281 10.988281 8.046875 11.171875 8.277344 11.171875 C 9.128906 11.171875 9.515625 11.171875 9.515625 12.414062 L 9.515625 13.242188 C 9.515625 15.351562 8.703125 16.0625 7.839844 16.8125 C 7.742188 16.894531 7.648438 16.976562 7.554688 17.0625 C 6.699219 17.832031 6.207031 18.917969 6.207031 20.039062 C 6.207031 22.222656 7.984375 24 10.167969 24 L 13.417969 24 C 15.601562 24 17.378906 22.222656 17.378906 20.039062 C 17.378906 18.917969 16.886719 17.832031 16.03125 17.0625 C 15.9375 16.976562 15.84375 16.894531 15.746094 16.8125 C 14.882812 16.0625 14.070312 15.351562 14.070312 13.242188 L 14.070312 12.414062 C 14.070312 11.171875 14.457031 11.171875 15.308594 11.171875 C 15.539062 11.171875 15.722656 10.988281 15.722656 10.757812 C 15.722656 10.53125 15.539062 10.34375 15.308594 10.34375 L 12.433594 10.34375 C 12.636719 7.921875 14.582031 5.992188 17.011719 5.8125 C 17.210938 6.746094 18.042969 7.449219 19.035156 7.449219 L 21.515625 7.449219 C 21.746094 7.449219 21.929688 7.261719 21.929688 7.035156 L 21.929688 3.722656 C 21.929688 3.496094 21.746094 3.308594 21.515625 3.308594 Z M 4.964844 6.621094 L 2.898438 6.621094 L 2.898438 5.792969 L 4.136719 5.792969 C 4.367188 5.792969 4.550781 5.609375 4.550781 5.378906 C 4.550781 5.152344 4.367188 4.964844 4.136719 4.964844 L 2.898438 4.964844 L 2.898438 4.136719 L 4.964844 4.136719 C 5.648438 4.136719 6.207031 4.695312 6.207031 5.378906 C 6.207031 6.0625 5.648438 6.621094 4.964844 6.621094 Z M 10.757812 2.898438 L 10.757812 0.828125 L 11.585938 0.828125 L 11.585938 2.070312 C 11.585938 2.296875 11.769531 2.484375 12 2.484375 C 12.230469 2.484375 12.414062 2.296875 12.414062 2.070312 L 12.414062 0.828125 L 13.242188 0.828125 L 13.242188 2.898438 C 13.242188 3.582031 12.683594 4.136719 12 4.136719 C 11.316406 4.136719 10.757812 3.582031 10.757812 2.898438 Z M 15.203125 17.4375 C 15.296875 17.515625 15.386719 17.597656 15.476562 17.675781 C 16.160156 18.289062 16.550781 19.152344 16.550781 20.039062 C 16.550781 21.765625 15.144531 23.171875 13.417969 23.171875 L 10.167969 23.171875 C 8.441406 23.171875 7.035156 21.765625 7.035156 20.039062 C 7.035156 19.152344 7.425781 18.289062 8.109375 17.675781 C 8.199219 17.597656 8.289062 17.515625 8.382812 17.4375 C 9.300781 16.636719 10.34375 15.730469 10.34375 13.242188 L 10.34375 12.414062 C 10.34375 11.871094 10.257812 11.46875 10.117188 11.171875 L 13.46875 11.171875 C 13.328125 11.46875 13.242188 11.871094 13.242188 12.414062 L 13.242188 13.242188 C 13.242188 15.730469 14.285156 16.636719 15.203125 17.4375 Z M 19.035156 6.621094 C 18.351562 6.621094 17.792969 6.0625 17.792969 5.378906 C 17.792969 4.695312 18.351562 4.136719 19.035156 4.136719 L 21.101562 4.136719 L 21.101562 4.964844 L 19.863281 4.964844 C 19.632812 4.964844 19.449219 5.152344 19.449219 5.378906 C 19.449219 5.609375 19.632812 5.792969 19.863281 5.792969 L 21.101562 5.792969 L 21.101562 6.621094 Z M 19.035156 6.621094"/>
</svg>

<svg xmlns="http://www.w3.org/2000/svg" width="32" height="32" viewBox="0 0 24 24">
    <path d="M21.516 3.309h-2.48a2.074 2.074 0 0 0-2.032 1.675 5.791 5.791 0 0 0-4.59 2.805V4.922a2.073 2.073 0 0 0 1.656-2.024V.414A.414.414 0 0 0 13.656 0h-3.312a.414.414 0 0 0-.414.414v2.484c0 .997.715 1.832 1.656 2.024v2.867a5.791 5.791 0 0 0-4.59-2.805A2.074 2.074 0 0 0 4.965 3.31h-2.48a.414.414 0 0 0-.415.414v3.312c0 .227.184.414.414.414h2.48c.993 0 1.825-.703 2.024-1.636a4.97 4.97 0 0 1 4.578 4.53H8.277a.414.414 0 0 0 0 .829c.852 0 1.239 0 1.239 1.242v.828c0 2.11-.813 2.82-1.676 3.57a8.697 8.697 0 0 0-.285.25 4.023 4.023 0 0 0-1.348 2.977A3.966 3.966 0 0 0 10.168 24h3.25a3.966 3.966 0 0 0 3.96-3.96 4.023 4.023 0 0 0-1.347-2.977 8.697 8.697 0 0 0-.285-.25c-.863-.75-1.676-1.461-1.676-3.57v-.829c0-1.242.387-1.242 1.239-1.242a.414.414 0 0 0 0-.828h-2.875a4.97 4.97 0 0 1 4.578-4.531 2.073 2.073 0 0 0 2.023 1.636h2.48c.231 0 .415-.187.415-.414V3.723a.414.414 0 0 0-.414-.414zM4.965 6.62H2.898v-.828h1.239a.414.414 0 0 0 0-.828H2.898v-.828h2.067c.683 0 1.242.558 1.242 1.242 0 .684-.559 1.242-1.242 1.242zm5.793-3.723V.828h.828V2.07a.414.414 0 0 0 .828 0V.828h.828v2.07a1.242 1.242 0 0 1-2.484 0zm4.445 14.54c.094.078.184.16.274.238a3.192 3.192 0 0 1 1.074 2.363 3.137 3.137 0 0 1-3.133 3.133h-3.25a3.137 3.137 0 0 1-3.133-3.133c0-.887.39-1.75 1.074-2.363.09-.078.18-.16.274-.238.918-.801 1.96-1.708 1.96-4.196v-.828c0-.543-.085-.945-.226-1.242h3.352c-.14.297-.227.7-.227 1.242v.828c0 2.488 1.043 3.395 1.961 4.195zM19.035 6.62a1.245 1.245 0 0 1-1.242-1.242c0-.684.559-1.242 1.242-1.242h2.067v.828h-1.239a.414.414 0 0 0 0 .828h1.239v.828zm0 0"/>
</svg>
